svgs/sharp-regular/building-shield.svg

<svg xmlns="http://www.w3.org/2000/svg" viewBox="0 0 576 512"><!--! Font Awesome Pro 6.6.0 by @fontawesome - https://fontawesome.com License - https://fontawesome.com/license (Commercial License) Copyright 2024 Fonticons, Inc. --><path d="M48 48l288 0 0 178.9 48-18.6L384 48l0-48L336 0 48 0 0 0 0 48 0 464l0 48 48 0 288 0 26.1 0c-19.2-13.7-35.7-30-49.5-48L240 464l0-112-96 0 0 112-96 0L48 48zM296 216l-80 0 0 80 40 0 0-38.2 40-15.5 0-26.3zM88 88l0 80 80 0 0-80L88 88zm208 0l-80 0 0 80 80 0 0-80zM88 216l0 80 80 0 0-80-80 0zm439.3 96.4c-5.2 61-38.8 121.7-95.3 148l0-184.9 95.3 36.9zM432 512c96-32 144-130.2 144-216l0-16.2L432 224 288 279.8l0 16.2c0 85.8 48 184 144 216z"/></svg>

<svg xmlns="http://www.w3.org/2000/svg" viewBox="0 0 576 512"><!--! Font Awesome Pro 6.4.0 by @fontawesome - https://fontawesome.com License - https://fontawesome.com/license (Commercial License) Copyright 2023 Fonticons, Inc. --><path d="M48 48H336V226.9l48-18.6V48 0H336 48 0V48 464v48H48 336h26.1c-19.2-13.7-35.7-30-49.5-48H240V352H144V464H48V48zM296 216H216v80l40 0V257.8l40-15.5V216zM88 88v80h80V88H88zm208 0H216v80h80V88zM88 216v80h80V216H88zm439.3 96.4c-5.2 61-38.8 121.7-95.3 148V275.5l95.3 36.9zM432 512c96-32 144-130.2 144-216V279.8L432 224 288 279.8V296c0 85.8 48 184 144 216z"/></svg>
